X:1
T: Lady Wemyss
C:
R:Jig
Q:180
K:A
M:6/8
L:1/16
|:B2|c2d2e2 e2A2a2|c2A2c2 e4d2|c2d2e2 e2f2=g2|B2=G2B2 d4B2|
c2d2e2 e2f2g2|a2g2f2 e2d2c2|d2b2d2 c2a2c2|B2=G2B2 d4e2|
a2e2c2 e2c2A2|a2e2c2 e2f2g2|a2e2c2 e2c2A2|B2=G2B2 d4e2|
a2e2c2 e2c2A2|a2e2c2 e2f2g2|a2e2c2 e2c2A2|B2=G2B2 d4:|
